assets/megaphone.svg

<svg xmlns="http://www.w3.org/2000/svg" fill="none" viewBox="0 0 28 25">
  <path fill="#2A2238" d="M22.75 2.625c0-.69619.2766-1.36387.7688-1.856155C24.0111.276562 24.6788 0 25.375 0c.6962 0 1.3639.276562 1.8562.768845C27.7234 1.26113 28 1.92881 28 2.625v19.25c0 .6962-.2766 1.3639-.7688 1.8562-.4923.4922-1.16.7688-1.8562.7688-.6962 0-1.3639-.2766-1.8562-.7688-.4922-.4923-.7688-1.16-.7688-1.8562v-.3745c-3.7835-2.1717-7.8575-3.2252-12.096-3.6452l.7088 4.7459c.0475.2529.0388.5131-.0256.7622-.0645.2491-.1831.4809-.3473.6789-.1643.198-.3702.3574-.6031.4667-.2329.1094-.48702.1661-.7443.166h-.959c-.34016 0-.67294-.0992-.95764-.2854-.28469-.1861-.50896-.4512-.64536-.7628L3.843 17.5192c-.11783-.0019-.23566-.0036-.3535-.0052-.92686-.0092-1.81279-.3832-2.46592-1.0409C.370458 15.8154.00271573 14.9269 0 14v-3.5c.00312337-.92699.370247-1.81566 1.02229-2.47457.65203-.65891 1.5368-1.03534 2.46371-1.04818 1.44904-.01965 2.89766-.06341 4.34525-.13125C13.1565 6.5765 18.5902 5.36025 22.75 2.99775V2.625Zm1.75 0v19.25c0 .2321.0922.4546.2563.6187.1641.1641.3866.2563.6187.2563.2321 0 .4546-.0922.6187-.2563.1641-.1641.2563-.3866.2563-.6187V2.625c0-.23206-.0922-.45462-.2563-.61872-.1641-.16409-.3866-.25628-.6187-.25628-.2321 0-.4546.09219-.6187.25628-.1641.1641-.2563.38666-.2563.61872Zm-1.75 2.3625c-4.102 2.10875-9.1158 3.2235-14 3.55775V15.953c.315.0175.62825.0385.93975.063 4.49405.3308 8.91275 1.302 13.06025 3.4878V4.9875ZM7 15.8637V8.63625c-1.16165.04251-2.32371.07284-3.486.091-.46765.00549-.91446.1943-1.24435.52582-.32988.33152-.51647.77923-.51965 1.24693V14c0 .9625.784 1.7535 1.7605 1.7657 1.16363.0135 2.32695.0462 3.4895.098ZM5.85025 17.57 8.666 22.8847l.0175.042h.959l-.0035-.0245-.77525-5.1904c-1.00385-.0606-2.00843-.1084-3.0135-.1436v.0018Z"/>
</svg>

<svg width="28" height="25" viewBox="0 0 28 25" fill="none" xmlns="http://www.w3.org/2000/svg">
<path d="M22.75 2.625C22.75 1.92881 23.0266 1.26113 23.5188 0.768845C24.0111 0.276562 24.6788 0 25.375 0C26.0712 0 26.7389 0.276562 27.2312 0.768845C27.7234 1.26113 28 1.92881 28 2.625V21.875C28 22.5712 27.7234 23.2389 27.2312 23.7312C26.7389 24.2234 26.0712 24.5 25.375 24.5C24.6788 24.5 24.0111 24.2234 23.5188 23.7312C23.0266 23.2389 22.75 22.5712 22.75 21.875V21.5005C18.9665 19.3288 14.8925 18.2753 10.654 17.8553L11.3628 22.6012C11.4103 22.8541 11.4016 23.1143 11.3372 23.3634C11.2727 23.6125 11.1541 23.8443 10.9899 24.0423C10.8256 24.2403 10.6197 24.3997 10.3868 24.509C10.1539 24.6184 9.89978 24.6751 9.6425 24.675H8.6835C8.34334 24.675 8.01056 24.5758 7.72586 24.3896C7.44117 24.2035 7.2169 23.9384 7.0805 23.6268L3.843 17.5192C3.72517 17.5173 3.60734 17.5156 3.4895 17.514C2.56264 17.5048 1.67671 17.1308 1.02358 16.4731C0.370458 15.8154 0.00271573 14.9269 0 14L0 10.5C0.00312337 9.57301 0.370247 8.68434 1.02229 8.02543C1.67432 7.36652 2.55909 6.99009 3.486 6.97725C4.93504 6.9576 6.38366 6.91384 7.83125 6.846C13.1565 6.5765 18.5902 5.36025 22.75 2.99775V2.625ZM24.5 2.625V21.875C24.5 22.1071 24.5922 22.3296 24.7563 22.4937C24.9204 22.6578 25.1429 22.75 25.375 22.75C25.6071 22.75 25.8296 22.6578 25.9937 22.4937C26.1578 22.3296 26.25 22.1071 26.25 21.875V2.625C26.25 2.39294 26.1578 2.17038 25.9937 2.00628C25.8296 1.84219 25.6071 1.75 25.375 1.75C25.1429 1.75 24.9204 1.84219 24.7563 2.00628C24.5922 2.17038 24.5 2.39294 24.5 2.625ZM22.75 4.9875C18.648 7.09625 13.6342 8.211 8.75 8.54525V15.953C9.065 15.9705 9.37825 15.9915 9.68975 16.016C14.1838 16.3468 18.6025 17.318 22.75 19.5038V4.9875ZM7 15.8637V8.63625C5.83835 8.67876 4.67629 8.70909 3.514 8.72725C3.04635 8.73274 2.59954 8.92155 2.26965 9.25307C1.93977 9.58459 1.75318 10.0323 1.75 10.5V14C1.75 14.9625 2.534 15.7535 3.5105 15.7657C4.67413 15.7792 5.83745 15.8119 7 15.8637V15.8637ZM5.85025 17.57L8.666 22.8847L8.6835 22.9267H9.6425L9.639 22.9022L8.86375 17.7118C7.8599 17.6512 6.85532 17.6034 5.85025 17.5682V17.57Z" fill="#2A2238"/>
</svg>
